modules/feathericon/icons/phone.svg

<?xml version="1.0" encoding="UTF-8"?>
<svg width="12px" height="14px" viewBox="0 0 12 14" version="1.1" xmlns="http://www.w3.org/2000/svg" xmlns:xlink="http://www.w3.org/1999/xlink">
    <!-- Generator: sketchtool 48.1 (47250) - http://www.bohemiancoding.com/sketch -->
    <title>phone</title>
    <desc>Created with sketchtool.</desc>
    <defs></defs>
    <g id="web-app" stroke="none" stroke-width="1" fill="none" fill-rule="evenodd">
        <g id="phone" fill="#000000">
            <path d="M3.47823661,0.382013336 C3.69015717,0.646091967 4.32624794,1.43798401 4.5381685,1.70206264 C4.7502536,1.96596934 5.17425926,2.49395468 3.91375969,3.59909624 C3.15755868,4.26221557 3.09750355,4.98980721 5.22855568,7.64365992 C7.31501893,10.2418085 8.04472988,10.3480589 8.78974254,9.6711855 C10.0614305,8.57996996 10.4740832,9.09402927 10.6861683,9.35793598 L11.7461002,10.6779853 C11.9581853,10.9420639 12.382191,11.4700492 11.2278162,12.7070582 C10.073277,13.9442391 10.0532037,14.186655 9.37713106,13.8797668 C8.70105839,13.5727066 5.99676772,12.3448097 3.46408663,9.19082372 C0.908864309,6.00898568 0.221274218,3.01282793 0.0493355622,2.26374551 C-0.122603094,1.51483502 0.109390691,1.53632579 1.47585054,0.563051617 C2.84231038,-0.410050631 3.26631605,0.117934705 3.47823661,0.382013336" id="Shape"></path>
        </g>
    </g>
</svg>

<svg width="12" height="14" viewBox="0 0 12 14" xmlns="http://www.w3.org/2000/svg"><path d="M3.478.382l1.06 1.32c.212.264.636.792-.624 1.897-.756.663-.816 1.39 1.315 4.045 2.086 2.598 2.816 2.704 3.56 2.027 1.272-1.091 1.685-.577 1.897-.313l1.06 1.32c.212.264.636.792-.518 2.03-1.155 1.236-1.175 1.479-1.85 1.172-.677-.307-3.381-1.535-5.914-4.69C.91 6.01.221 3.014.05 2.265c-.172-.75.06-.728 1.427-1.7C2.842-.41 3.266.117 3.478.381" fill="#000" fill-rule="evenodd"/></svg>
